!!!!SEGMENT: pl-kk--kk-i-382--020_anonim-nro-7-rorate-caeli.krn
!!!id: 18xx:1490
!!!COM: Anonim
!!!OTL: Nro 7 Rorate Caeli
!!!PDT:
!!!SMS-siglum: PL-Kk
!!!SMS-shelfmark: Kk.I.382
!!!NIFC-rismID: 1001139137
!!!URL-scan: http://repozytorium.nifc.pl/skany/pl-kk-nut--i-382
!!!ONB-nifc: UWAGA: obsada: S/T 1, T 2, A/B 1, B 2. Skan 0019, 0091, 0164-0165, 0236-0237
!!!SMS-variant:
!!!SMS-altvar:
**kern	**text	**dynam	**kern	**text	**kern	**text	**kern	**text
*part4	*part4	*part4	*part3	*part3	*part2	*part2	*part1	*part1
*staff4	*staff4	*	*staff3	*staff3	*staff2	*staff2	*staff1	*staff1
*I"Basso II	*	*	*I"Tenore II	*	*I"Alto vel Basso I	*	*I"Soprano vel Tenore I.	*
*I'B 2	*	*	*I'T 2	*	*I'A/B 1	*	*I'S/T 1	*
*group1	*	*	*group1	*	*group1	*	*group1	*
*clefF4	*	*	*clefC4	*	*clefC3	*	*clefC1	*
*k[]	*	*	*k[]	*	*k[]	*	*k[]	*
*M4/4	*	*	*M4/4	*	*M4/4	*	*M4/4	*
*met(c)	*	*	*met(c|)	*	*met(c)	*	*met(c)	*
=1	=1	=1	=1	=1	=1	=1	=1	=1
*2\right	*	*	*2\right	*	*2\right	*	*2\right	*
!LO:TX:a:t=P:problem:all\right:global	!	!	!LO:TX:a:t=P:problem:all\right:global	!	!LO:TX:a:t=P:problem:all\right:global	!	!LO:TX:a:t=P:problem:all\right:global	!
!LO:TX:b:t=Nro. 7. Rorate \nin C.	!	!	!LO:TX:t=P:problem:alla breve	!	!LO:TX:a:t=Nro 7. Rorate.	!	!LO:TX:a:t=Nro 7. Rorate.	!
!	!	!	!LO:TX:a:t=Nro. 7. Rorate.	!	!	!	!	!
!LO:TX:a:t=P:problem:metrum C z kropką	!	!	!LO:TX:a:t=P:problem:metrum C| z kropką	!	!LO:TX:a:t=P:problem:metrum C z kropką	!	!LO:TX:a:t=P:problem:metrum C z kropką w środku	!
2c\	Ro-	.	2G/	Ro-	2e\	Ro-	2cc\	Ro-
2G\	-ra-	.	2B\	-ra-	2d\	-ra-	2b\	-ra-
=2	=2	=2	=2	=2	=2	=2	=2	=2
4E\	-te	.	4G/	-te	4e\	-te	4cc\	-te
4C/	ro-	.	4c\	ro-	4e\	ro-	4g\	ro-
4E\	-ra-	.	4c\	-ra-	4e\	-ra-	4g\	-ra-
4G\	-te	.	4B\	-te	4d\	-te	4g\	-te
=3	=3	=3	=3	=3	=3	=3	=3	=3
4E\	ce-	.	4r	.	4r	.	4r	.
4C/	-li	.	4C/	ro-	4e\	ro-	4g\	ro-
2r	.	.	4E/	-ra-	4e\	-ra-	4g\	-ra-
.	.	.	4G/	-te	4d\	-te	4g\	-te
!	!	!	!	!	!LO:LB:g=original	!	!LO:LB:g=original	!
=4	=4	=4	=4	=4	=4	=4	=4	=4
4r	.	.	4E/	ce-	4e\	ce-	4g\	ce-
4C/	ro-	.	4C/	-li	8e\	-li	8g\	-li
.	.	.	.	.	8e\	ro-	8g\	ro-
4E\	-ra-	.	2c\	ro-	4c\	-ra-	4g\	-ra-
4F\	-te	.	.	.	4f\	-te	4a\	-te
=5	=5	=5	=5	=5	=5	=5	=5	=5
2G\	ce-	.	2G/	-ra-	2d\	ce-	2b\	ce-
2F\	-li	.	2A/	-te	2f\	-li	2dd\	-li
!LO:LB:g=original	!	!	!LO:LB:g=original	!	!	!	!	!
=6	=6	=6	=6	=6	=6	=6	=6	=6
2E\	ce-	.	2G/	ce-	2c\	ce-	2ee\	ce-
2F\	-li	.	2A/	-li	2f\	-li	2cc\	-li
=7	=7	=7	=7	=7	=7	=7	=7	=7
2.D\	de-	.	2.A/	de-	2.f\	de-	2.cc\	de-
4D\	-su-	.	4F/	-su-	4f\	-su-	4b\	-su-
=8	=8	=8	=8	=8	=8	=8	=8	=8
4C/	-per	.	4G/	-per	4e\	-per	4cc\	-per
4E\	ro-	.	4G/	ro-	4r	.	4g\	ro-
4C/	-ra-	.	4E/	-ra-	2r	.	4e/	-ra-
4D/	-te	.	4F/	-te	.	.	4f/	-te
!	!	!	!	!	!	!	!LO:LB:g=original	!
=9	=9	=9	=9	=9	=9	=9	=9	=9
!	!	!	!	!	!LO:TX:a:t=2.	!	!	!
(4E\	ce-	.	2G/	ce-	0r	.	2g\	ce-
4C\)	.	.	.	.	.	.	.	.
4F\	-li	.	4A\	-li	.	.	4a\	-li
4F\	ro-	.	4A\	ro-	.	.	4a\	ro-
=10	=10	=10	=10	=10	=10	=10	=10	=10
4E\	-ra-	.	4G/	-ra-	.	.	4g\	-ra-
4C\	-te	.	4E/	-te	.	.	4e/	-te
4D\	de-	.	4.F/	de-	.	.	4.f/	de-
4GG/	-su-	.	.	.	.	.	.	.
.	.	.	8F/	-su-	.	.	8f/	-su-
!	!	!	!	!	!LO:LB:g=original	!	!	!
=11	=11	=11	=11	=11	=11	=11	=11	=11
4C/	-per	.	4E/	-per	4r	.	4e/	-per
4c\	ro-	.	4c\	ro-	4e\	ro-	4g\	ro-
4G\	-ra-	.	4B\	-ra-	4d\	-ra-	4g\	-ra-
4c\	-te	.	4c\	-te	4e\	-te	4g\	-te
!LO:LB:g=original	!	!	!	!	!	!	!	!
=12	=12	=12	=12	=12	=12	=12	=12	=12
2G\	ce-	.	2B\	ce-	2d\	ce-	2g\	ce-
4c\	-li	.	4c\	-li	4e\	-li	4g\	-li
4c\	ro-	.	4c\	ro-	4e\	ro-	4g\	ro-
!	!	!	!LO:LB:g=original	!	!	!	!	!
=13	=13	=13	=13	=13	=13	=13	=13	=13
4B\	-ra-	.	4d\	-ra-	4d\	-ra-	4g\	-ra-
4c\	-te	.	4c\	-te	4e\	-te	4g\	-te
!	!	!	!	!	!	!	!LO:LB:g=original	!
4.A\	de-	.	4.c\	de-	4e\	de-	4.g\	de-
.	.	.	.	.	4c\	-su-	.	.
8A\	-su-	.	8c\	-su-	.	.	8f#X/	-su-
=14	=14	=14	=14	=14	=14	=14	=14	=14
4G\	-per	.	4B\	-per	4d\	-per	4g\	-per
4G\	ro-	.	4G/	ro-	4d\	ro-	4b\	ro-
2D\	-ra-	.	2F#X/	-ra-	2d\	-ra-	2a\	-ra-
=15	=15	=15	=15	=15	=15	=15	=15	=15
4BB/	-te	.	4G/	-te	4d\	-te	4b\	-te
4GG/	ro-	.	4G/	ro-	4d\	ro-	4b\	ro-
4BB/	-ra-	.	4G/	-ra-	4d\	-ra-	4b\	-ra-
4D\	-te	.	4F#X/	-te	4d\	-te	4a\	-te
!	!	!	!	!	!LO:LB:g=original	!	!	!
=16	=16	=16	=16	=16	=16	=16	=16	=16
4BB/	ce-	.	4r	.	4r	.	4r	.
4GG/	-li	.	4G/	ro-	4d\	ro-	4b\	ro-
2r	.	.	4B\	-ra-	4d\	-ra-	4b\	-ra-
.	.	.	4d\	-te	4d\	-te	4a\	-te
!LO:LB:g=original	!	!	!	!	!	!	!	!
=17	=17	=17	=17	=17	=17	=17	=17	=17
4r	.	.	2B\	ce-	2d\	ce-	2b\	ce-
4G\	ro-	.	.	.	.	.	.	.
4B\	-ra-	.	4G/	-li	4d\	-li	4g\	-li
4c\	-te	.	4G/	ro-	4e\	ro-	4cc\	ro-
!	!	!	!	!	!	!	!LO:LB:g=original	!
=18	=18	=18	=18	=18	=18	=18	=18	=18
2d\	ce-	.	2F#X/	-ra-	2d\	-ra-	2a\	-ra-
!	!	!	!	!	!	!	!LO:SIC:v:s=2ee:t=?	!
2c\	-li	.	2G/	-te	2e\	-te	2dd\	-te
=19	=19	=19	=19	=19	=19	=19	=19	=19
2B\	ce-	.	2G/	ce-	2d\	ce-	2g\	ce-
2c\	-li	.	2G/	-li	2e\	-li	2cc\	-li
!	!	!	!LO:LB:g=original	!	!	!	!	!
=20	=20	=20	=20	=20	=20	=20	=20	=20
2.A\	de-	.	2.G/	de-	2.e\	de-	2.cc\	De-
!	!	!	!	!	!LO:TX:a:t=V&colon; S&colon;	!	!	!
4A\	-su-	.	4F#X/	-su-	4c\	-su-	4cc\	-su-
!	!	!	!	!	!LO:PB:g=original	!	!	!
=21	=21	=21	=21	=21	=21	=21	=21	=21
4G\	-per	.	4G/	-per	4d\	-per	4b\	-per,
!LO:TX:a:t=P:problem:ozn. dynamiki zapisane na pięciolinii	!	!LO:DY:a:t=p.	!	!	!	!	!	!
4B\	et	p	4B\	et	4d\	et	4r	.
4G\	nu-	.	4G/	nu-	4B/	nu-	2r	.
4A\	-bes	.	4A/	-bes	4c/	-bes	.	.
=22	=22	=22	=22	=22	=22	=22	=22	=22
!	!	!	!	!	!	!	!LO:TX:a:t=2.	!
(4B\	nu-	.	4B\	nu-	(4d/	nu-	0r	.
4G\)	.	.	4G/	-bes	4B/)	.	.	.
2c\	-bes	.	(2c\	plu-	2e\	-bes	.	.
!LO:LB:g=original	!	!	!	!	!	!	!	!
=23	=23	=23	=23	=23	=23	=23	=23	=23
!	!	!	!	!	!	!	!LO:TX:a:t=V&colon; S&colon;	!
4B\	plu-	.	4B\)	.	4d\	plu-	.	.
4G\	-ant	.	4G/	-ant	4B/	-ant	.	.
(4A\	ju-	.	(4A/	iu-	2c\	iu-	.	.
4D\)	.	.	4D/)	.	.	.	.	.
!	!	!	!	!	!	!	!LO:PB:g=original	!
=24	=24	=24	=24	=24	=24	=24	=24	=24
4G\	-stum	.	4G/	-stum	4B/	-stum	4r	.
!	!	!LO:DY:a:t=f.	!	!	!	!	!	!
4G\	et	f	4G/	et	4d\	et	4b\	et
4E\	nu-	.	4G/	nu-	4e\	nu-	4cc\	nu-
4F\	-bes	.	4A/	-bes	4c\	-bes	4cc\	-bes
=25	=25	=25	=25	=25	=25	=25	=25	=25
!	!	!	!	!	!LO:SIC:v:s=2d	!	!	!
2G\	plu-	.	2d\	plu-	2e\	plu-	2b\	plu-
2A\	-ant	.	2c\	-ant	2e\	-ant	2cc\	-ant
=26	=26	=26	=26	=26	=26	=26	=26	=26
(2F\	ju-	.	2c\	iu-	1d	iu-	(2a\	ju-
2G\)	.	.	2B\	.	.	.	2b\)	.
!	!	!	!LO:LB:g=original	!	!LO:LB:g=original	!	!	!
=27	=27	=27	=27	=27	=27	=27	=27	=27
2C/	-stum	.	2c\	-stum	2c\	-stum	2g\	-stum
4c\	nu-	.	4c\	u-	4e\	nu-	4g\	nu-
!LO:TX:a:t=V&colon; S&colon;	!	!	!	!	!	!	!	!
4B\	-bes	.	4c\	-bes	4d\	-bes	4g\	-bes
!LO:PB:g=original	!	!	!	!	!	!	!	!
=28	=28	=28	=28	=28	=28	=28	=28	=28
2c\	plu-	.	2c\	plu-	2e\	plu-	2g\	plu-
2G#X\	-ant	.	2B\	-ant	2e\	-ant	2b\	-ant
=29	=29	=29	=29	=29	=29	=29	=29	=29
2A\	nu-	.	2c\	plu-	2e\	nu-	2a\	nu-
2E\	-bes	.	2B\	-ant	2e\	-bes	2g#X\	-bes
!	!	!	!	!	!	!	!LO:LB:g=original	!
=30	=30	=30	=30	=30	=30	=30	=30	=30
4A\	plu-	.	4c\	plu-	4e\	plu-	4a\	plu-
4D\	-ant	.	4d\	-ant	4f\	-ant	4b\	-ant
2E\	iu-	.	2B\	iu-	2e\	iu-	2g#X\	ju-
=31	=31	=31	=31	=31	=31	=31	=31	=31
4AA/	-stum,	.	4c\	-stum	4e\	-stum	4a\	-stum
!	!	!LO:DY:a:t=p.	!	!	!	!	!	!
4c\	a-	p	4A\	a-	4e\	a-	4cc\	a-
4A\	-pe-	.	4c\	-pe-	4e\	-pe-	4a\	-pe-
4c\	-ri-	.	4A\	-ri-	4e\	-ri-	4cc\	-ri-
=32	=32	=32	=32	=32	=32	=32	=32	=32
2G#X\	-a-	.	2e\	-a-	2e\	-a-	2g#X\	-a-
4G#\	-tur	.	4e\	-tur	4e\	-tur	4g#\	-tur
4G#\	a-	.	4e\	a-	4e\	a-	4g#\	a-
!	!	!	!	!	!LO:LB:g=original	!	!	!
=33	=33	=33	=33	=33	=33	=33	=33	=33
4B\	-pe-	.	4d\	-pe-	4f\	-pe-	4b\	-pe-
4B\	-ri-	.	4d\	-ri-	4f\	-ri-	4b\	-ri-
4B\	-a-	.	4e\	-a-	4g\	-a-	4b\	-a-
4B\	-tur	.	4d\	-tur	4f\	-tur	4b\	-tur
!LO:LB:g=original	!	!	!LO:LB:g=original	!	!	!	!	!
=34	=34	=34	=34	=34	=34	=34	=34	=34
2B\	ter-	.	1c	ter-	1e	ter-	(2b\	ter-
2A\	.	.	.	.	.	.	2a\)	.
!	!	!	!	!	!	!	!LO:LB:g=original	!
=35	=35	=35	=35	=35	=35	=35	=35	=35
2B\	-ra	.	2B\	-ra	2d\	-ra	2b\	-ra
2Gn\	a-	.	2e\	a-	2e\	a-	2g\	a-
=36	=36	=36	=36	=36	=36	=36	=36	=36
2G\	-pe-	.	2A\	-pe-	2e\	-pe-	2g\	-pe-
2Fn\	-ri-	.	2d\	-ri-	2d\	-ri-	2fn/	-ri-
=37	=37	=37	=37	=37	=37	=37	=37	=37
4G\	-a-	.	4B\	-a-	4d\	-a-	4g\	-a-
4G\	-tur	.	4G/	-tur	4d\	-tur	4g\	-tur
(4G\	ter-	.	2c\	ter-	(2e\	ter-	(4g\	ter-
4A\)	.	.	.	.	.	.	4a\)	.
=38	=38	=38	=38	=38	=38	=38	=38	=38
1Fn	.	.	2c\	.	1d)	.	1fn	.
.	.	.	2B\	.	.	.	.	.
=39	=39	=39	=39	=39	=39	=39	=39	=39
4G\	-ra,	.	4c\	-ra	4e\	-ra	4g\	-ra
!	!	!LO:DY:a:t=f.	!	!	!	!	!	!
4C/	a-	f	4c\	a-	4e\	a-	4g\	a-
4E\	-pe-	.	4c\	-pe-	4e\	-pe-	4g\	-pe-
4C/	-ri-	.	4c\	-ri-	4e\	-ri-	4g\	-ri-
!	!	!	!	!	!LO:LB:g=original	!	!	!
=40	=40	=40	=40	=40	=40	=40	=40	=40
2G\	-a-	.	2B\	-a-	2d\	-a-	2g\	-a-
4G\	-tur	.	4B\	-tur	4d\	-tur	4g\	-tur
4G\	a-	.	4B\	a-	4d\	a-	4g\	a-
!LO:LB:g=original	!	!	!	!	!	!	!LO:LB:g=original	!
=41	=41	=41	=41	=41	=41	=41	=41	=41
4E\	-pe-	.	4c\	-pe-	4e\	-pe-	4g\	-pe-
4E\	-ri-	.	4c\	-ri-	4e\	-ri-	4g\	-ri-
4F\	-a-	.	4A\	-a-	4c\	-a-	4a\	-a-
4E\	-tur	.	4c\	-tur	4e\	-tur	4g\	-tur
!	!	!	!LO:LB:g=original	!	!	!	!	!
=42	=42	=42	=42	=42	=42	=42	=42	=42
1D	ter-	.	2c\	ter-	1f	ter-	(2a\	ter-
.	.	.	2B\	.	.	.	2fn/)	.
=43	=43	=43	=43	=43	=43	=43	=43	=43
2C/	-ra	.	2c\	-ra	2e\	-ra	2g\	-ra
2c\	a-	.	2G/	a-	2e\	a-	2cc\	a-
=44	=44	=44	=44	=44	=44	=44	=44	=44
2A\	-pe-	.	2c\	-pe-	2f\	-pe-	2cc\	-pe-
2B-X\	-ri-	.	2d\	-ri-	2f\	-ri-	2b-X\	-ri-
=45	=45	=45	=45	=45	=45	=45	=45	=45
2G\	-a-	.	2B-X\	-a-	2e\	-a-	2b-X\	-a-
2A\	-tur	.	2c\	-tur	2e\	-tur	2a\	-tur
=46	=46	=46	=46	=46	=46	=46	=46	=46
(2F\	ter-	.	2c\	ter-	1d	ter-	(2a\	ter-
2G\)	.	.	2Bn\	.	.	.	2g\)	.
!	!	!	!	!	!LO:LB:g=original	!	!	!
=47	=47	=47	=47	=47	=47	=47	=47	=47
2C/	-ra	.	2c\	-ra	2e\	-ra	2g\	-ra
2AA/	et	.	2c\	et	2e\	et	2a\	et
!	!	!	!	!	!	!	!LO:LB:g=original	!
=48	=48	=48	=48	=48	=48	=48	=48	=48
4C/	ger-	.	4c\	ger-	4e\	ger-	4a\	ger-
4BB/	.	.	4d\	.	4d\	.	4g#X\	.
4C/	.	.	4c\	.	4e\	.	4a\	.
4D/	.	.	4B\	.	4f\	.	4b\	.
!LO:LB:g=original	!	!	!	!	!	!	!	!
=49	=49	=49	=49	=49	=49	=49	=49	=49
2E\	.	.	2B\	.	2e\	.	2g#X\	.
4E\	-mi-	.	4B\	-mi-	4e\	-mi-	4g#\	-mi-
4E\	-net	.	4B\	-net	4e\	-net	4g#\	-net
=50	=50	=50	=50	=50	=50	=50	=50	=50
2A\	sal-	.	(4c\	sal-	2e\	sal-	(4a\	sal-
.	.	.	4e\)	.	.	.	4cc\)	.
2D\	-va-	.	(4d\	-va-	2f\	-va-	(4b\	-va-
.	.	.	4c\)	.	.	.	4a\)	.
!	!	!	!LO:LB:g=original	!	!	!	!	!
=51	=51	=51	=51	=51	=51	=51	=51	=51
1E	-to-	.	1B	-to-	1e	-to-	(2a\	-to-
.	.	.	.	.	.	.	2g#X\)	.
=52	=52	=52	=52	=52	=52	=52	=52	=52
2AA/	-rem	.	2c\	-rem	2e\	-rem	2a\	-rem
2c\	sal-	.	2e\	sal-	2c\	sal-	(2gn\	sal-
=53	=53	=53	=53	=53	=53	=53	=53	=53
2A\	-ca-	.	2e\	.	2c\	-va-	2f#X/)	.
2B\	-to-	.	2d#X\	-va-	2B/	-to-	2f#/	-va-
!	!	!	!	!	!LO:LB:g=original	!	!LO:LB:g=original	!
=54	=54	=54	=54	=54	=54	=54	=54	=54
2E\	-rem	.	2e\	-to-	2B/	-rem	2g\	-to-
4C/	sal-	.	4e\	.	4e\	sal-	4g\	.
!	!	!	!	!	!LO:SIC:v:s=4f#	!	!	!
4D/	-va-	.	4dn\	.	4f\	-va-	4f#X\	.
=55	=55	=55	=55	=55	=55	=55	=55	=55
1E	-to-	.	1c	.	[1e	-to-	1g	.
=56	=56	=56	=56	=56	=56	=56	=56	=56
1F	.	.	2c\	.	2e\]	.	1a	.
.	.	.	2A\	.	2d\	.	.	.
=57	=57	=57	=57	=57	=57	=57	=57	=57
1E	-rem.	.	1B	-rem.	1e;	-rem	1g#X	-rem.
!LO:LB:g=original	!	!	!	!	!	!	!	!
==58	==58	==58	==58	==58	==58	==58	==58	==58
*M4/4	*	*	*M4/4	*	*M4/4	*	*M4/4	*
*met(c)	*	*	*met(c)	*	*met(c)	*	*met(c)	*
!LO:TX:a:t=P:problem:metrum C z kropką	!	!	!LO:TX:a:t=P:problem:metrum C z kropką	!	!LO:TX:a:t=P:problem:metrum C z kropką	!	!LO:TX:a:t=P:problem:metrum C z kropką w środku	!
2A\	Be-	.	2A\	Be-	2c\	Be-	2a\	Be-
4A\	-ne-	.	4A\	-ne-	4c\	-ne-	4a\	-ne-
4A\	-di-	.	4A\	-di-	4c\	-di-	4a\	-di-
=59	=59	=59	=59	=59	=59	=59	=59	=59
2.G#X\	-xi-	.	2.B\	-xi-	2.B/	-xi-	2.g#X\	-xi-
4G#\	-sti	.	4B\	-sti	4B/	-sti	4g#\	-sti
=60	=60	=60	=60	=60	=60	=60	=60	=60
2.E\	Do-	.	2.c\	Do-	2.B/	Do-	2.e/	Do-
4E\	-mi-	.	4c\	-mi-	4A/	-mi-	4e/	-mi-
!	!	!	!LO:LB:g=original	!	!LO:LB:g=original	!	!	!
=61	=61	=61	=61	=61	=61	=61	=61	=61
2D\	-ne	.	2B\	-ne	2B/	-ne	2d/	-ne
2Gn\	ter-	.	2e\	ter-	2B/	ter-	2gn\	ter-
!	!	!	!	!	!	!	!LO:LB:g=original	!
=62	=62	=62	=62	=62	=62	=62	=62	=62
2G\	-ram	.	2A\	-ram	2c/	-ram	2g\	-ram
2F#X\	tu-	.	2d\	tu-	2A/	tu-	2f#X/	tu-
=63	=63	=63	=63	=63	=63	=63	=63	=63
2G\	-am	.	2G/	-am	2B/	-am	2g\	-am
2G\	ter-	.	2c\	ter-	2e\	ter-	2g\	ter-
=64	=64	=64	=64	=64	=64	=64	=64	=64
2F#X\	-ram	.	2A\	-ram	2e\	-ram	2f#X/	-ram
2F#\	tu-	.	2B\	tu-	2d#X\	tu-	2f#/	tu-
=65	=65	=65	=65	=65	=65	=65	=65	=65
2G#X\	-am	.	2E/	-am	2e\	-am	2g#X\	-am
!LO:LB:g=original	!	!LO:DY:a:t=f.	!	!	!	!	!	!
4A\	a-	f	4c\	a-	4e\	a-	4a\	a-
4Gn\	-ver-	.	4d\	-ver-	4e\	-ver-	4b\	-ver-
=66	=66	=66	=66	=66	=66	=66	=66	=66
1Fn	-ti-	.	1A	-ti-	(2e\	-ti-	(2cc\	-ti-
.	.	.	.	.	2d\)	.	2a\)	.
=67	=67	=67	=67	=67	=67	=67	=67	=67
4E\	-sti	.	4G#X/	-sti	4e\	-sti	1b	.
4E\	cap-	.	4G#/	cap-	4e\	cap-	.	.
4G#X\	-ti-	.	4B\	-ti-	4e\	-ti-	.	.
4E\	-vi-	.	4G#/	-vi-	4e\	-vi-	.	.
!	!	!	!	!	!LO:LB:g=original	!	!	!
=68	=68	=68	=68	=68	=68	=68	=68	=68
4A\	-ta-	.	4A/	-ta-	4e\	-ta-	4cc\	-sti
4E\	-tem	.	4G#X/	-tem	4e\	-tem	4ee\	ca-
2r	.	.	2r	.	2r	.	4ee\	-pti-
.	.	.	.	.	.	.	4dd\	-vi-
!	!	!	!LO:LB:g=original	!	!	!	!LO:LB:g=original	!
=69	=69	=69	=69	=69	=69	=69	=69	=69
4r	.	.	4r	.	4r	.	2cc\	-ta-
4A\	cap-	.	4A\	cap-	4e\	cap-	.	.
4A\	-ti-	.	4A\	-ti-	4e\	-ti-	4cc\	-tem
4Gn\	-vi-	.	4B\	-vi-	4e\	-vi-	4r	.
=70	=70	=70	=70	=70	=70	=70	=70	=70
2Fn\	-ta-	.	2A\	-ta-	2f\	-ta-	2cc\	Ja-
2C/	-tem	.	2c\	-tem	2e\	-tem	[2a\	.
=71	=71	=71	=71	=71	=71	=71	=71	=71
(2D\	Ja-	.	1B	Ja-	(2f\	Ja-	2a\]	.
2E\)	.	.	.	.	2e\)	.	2g#X\	.
=72	=72	=72	=72	=72	=72	=72	=72	=72
1AA	-cob.	.	1c#X	-cob.	1e	-cob.	1a	-cob.
!LO:LB:g=original	!	!	!	!	!	!	!	!
==73	==73	==73	==73	==73	==73	==73	==73	==73
*	*	*	*rscale:1/2	*	*	*	*rscale:1/2	*
*M3/2	*	*	*M3/2	*	*M3/2	*	*M3/2	*
!	!	!	!LO:TX:t=P:problem:metrum 3/4  w tt. 73-96	!	!	!	!LO:TX:t=P:problem:metrum 3/4  w tt. 73-96	!
2.C/	Glo-	.	2.G/	Glo-	2.e\	Glo-	2.cc\	Glo-
4C/	-ri-	.	4G/	-ri-	4e\	-ri-	4cc\	-ri-
2C/	-a	.	2G/	-a	2e\	-a	2cc\	-a
!	!	!	!	!	!LO:LB:g=original	!	!	!
=74	=74	=74	=74	=74	=74	=74	=74	=74
2G\	pa-	.	2G/	pa-	2d\	pa-	2b\	pa-
2E\	-tri	.	2G/	-tri	2g\	-tri	2ee\	-tri
2F\	et	.	2A/	et	(4f\	et	(4dd\L	et
.	.	.	.	.	4e\)	.	4cc\)J	.
=75	=75	=75	=75	=75	=75	=75	=75	=75
2.G\	fi-	.	2.G/	fi-	2.d\	fi-	2.b\	fi-
4G\	-li-	.	4G/	-li-	4d\	-li-	4b\	-li-
!	!	!	!LO:TX:a:t=V&colon; S&colon;	!	!	!	!	!
2G\	-o	.	2G/	-o	2d\	-o	2b\	-o
!	!	!	!LO:PB:g=original	!	!	!	!LO:LB:g=original	!
=76	=76	=76	=76	=76	=76	=76	=76	=76
1G	et	.	2r	.	2r	.	2r	.
.	.	.	2B\	et	2d\	et	2g\	et
2A\	spi-	.	2A\	spi-	2c\	spi-	2a\	spi-
=77	=77	=77	=77	=77	=77	=77	=77	=77
2.B\	ri-	.	2.G/	-ri-	2.B/	-ri-	2.b\	-ri-
4A\	-tu-	.	4A/	-tu-	4c/	-tu-	4a\	-tu-
2G\	-i	.	2B\	-i	2d\	-i	2g\	-i
=78	=78	=78	=78	=78	=78	=78	=78	=78
2r	.	.	2c\	san-	2e\	san-	2cc\	san-
2C/	et	.	2c\	-cto	2e\	-cto	2g\	-cto
2D/	spi-	.	2B\	spi-	2d\	spi-	2fn/	spi-
=79	=79	=79	=79	=79	=79	=79	=79	=79
2.E\	-ri-	.	2.G/	-ri-	2.c\	-ri-	(2.e/	-ri-
4D\	-tu-	.	4B\	-tu-	4d\	-tu-	4f/)	.
2C/	-i	.	2c\	-i	2e\	-i	4g\	-tu-
.	.	.	.	.	.	.	4a\	-i
!LO:LB:g=original	!	!	!	!	!LO:LB:g=original	!	!	!
=80	=80	=80	=80	=80	=80	=80	=80	=80
2D\	San-	.	2d\	san-	2f\	san-	2b\	San-
2E\	.	.	2c\	.	2e\	.	2g#X\	.
2F\	.	.	2A\	.	2c\	.	[2a\	.
=81	=81	=81	=81	=81	=81	=81	=81	=81
2D\	.	.	4d\L	.	2f\	.	2a\]	.
.	.	.	4c\J	.	.	.	.	.
1E	.	.	1B	.	1e	.	1g#X	.
=82	=82	=82	=82	=82	=82	=82	=82	=82
2AA/	-cto	.	2c\	-cto	2e\	cto	2a\	-cto
2C/	si-	.	2E/	si-	2c/	si-	2gn\	si-
2C/	-cut	.	2E/	-cut	2c/	-cut	2g\	-cut
!	!	!	!LO:LB:g=original	!	!	!	!LO:LB:g=original	!
=83	=83	=83	=83	=83	=83	=83	=83	=83
1C	e-	.	1F#X	e-	1d	e-	1a	e-
2BB/	-rat	.	2G/	-rat	2d\	-rat	2b\	-rat
=84	=84	=84	=84	=84	=84	=84	=84	=84
1AA	in	.	1G	in	1e	in	1cc	in
2D\	prin-	.	2F#X/	prin-	2d\	prin-	(4dd\L	prin-
.	.	.	.	.	.	.	4cc\)J	.
=85	=85	=85	=85	=85	=85	=85	=85	=85
2.G\	-ci-	.	2.G/	-ci-	2.d\	-ci-	2.b\	-ci-
4G\	-pi-	.	4G/	-pi-	4d\	-pi-	4b\	-pi-
2G\	-o	.	2G/	-o	2d\	-o,	2b\	-o
=86	=86	=86	=86	=86	=86	=86	=86	=86
!	!	!	!	!	!LO:TX:a:t=V&colon; S&colon;	!	!	!
!	!	!	!	!	!LO:TX:b:t=1.	!	!	!
2G\	et	.	2B\	et	1.r	.	2g\	et
2G\	nunc	.	2B\	nunc	.	.	2g\	nunc
2G\	et	.	2B\	et	.	.	2g\	et
!LO:LB:g=original	!	!	!	!	!LO:PB:g=original	!	!	!
=87	=87	=87	=87	=87	=87	=87	=87	=87
2c\	et	.	2G/	sem-	2c/	et	1e	sem-
2c\	nunc	.	2G/	-per	2c/	nunc	.	.
2c\	et	.	2G/	et	2c/	et	2e/	-per
=88	=88	=88	=88	=88	=88	=88	=88	=88
2A\	sem-	.	2A\	sem-	2c/	sem-	2f/	sem-
2F\	-per	.	2c\	-per	2c/	-per	2a\	-per
2A\	et	.	2A\	et	2c/	et	2cc\	et
!	!	!	!	!	!	!	!LO:LB:g=original	!
=89	=89	=89	=89	=89	=89	=89	=89	=89
2B-X\	in	.	(4G/L	in	2d\	in	(4b-X\L	in
.	.	.	4F/)J	.	.	.	4a\)J	.
2c\	se-	.	2.F/	se-	2.c/	se-	2.g\	se-
2C/	-cu-	.	.	.	.	.	.	.
.	.	.	4E/	-cu-	4c/	-cu-	4g\	-cu-
!	!	!	!LO:LB:g=original	!	!	!	!	!
=90	=90	=90	=90	=90	=90	=90	=90	=90
2F\	-la	.	2F/	-la	2c\	-la	2a\	-la
2F\	se-	.	2G/	se-	2d\	se-	2bn\	se-
2E\	-cu-	.	2G/	-cu-	2e\	-cu-	2cc\	-cu-
=91	=91	=91	=91	=91	=91	=91	=91	=91
1D	-lo-	.	1F	-lo-	2c\	-lo-	(2a\	-lo-
.	.	.	.	.	2d\	.	2b\)	.
2C/	-rum	.	2G/	-rum	2e\	-rum	2cc\	-rum
=92	=92	=92	=92	=92	=92	=92	=92	=92
2F\	a-	.	2A/	a-	(4f\	a-	(1cc	a-
.	.	.	.	.	4e\	.	.	.
2G\	.	.	1G	.	1d)	.	.	.
2GG/	.	.	.	.	.	.	2b\)	.
!LO:LB:g=original	!	!	!	!	!LO:LB:g=original	!	!	!
=93	=93	=93	=93	=93	=93	=93	=93	=93
2C/	-men	.	2G/	-men	2e\	-men	2cc\	-men
2F\	a-	.	2A/	a-	2c\	a-	2a\	a-
2E\	-men	.	2G/	-men	2e\	-men	2cc\	-men
=94	=94	=94	=94	=94	=94	=94	=94	=94
2F\	a-	.	2A/	a-	2c\	a-	2a\	a-
1C	-men	.	2G/	-men	2e\	-men	2cc\	-men
.	.	.	2r	.	2r	.	2r	.
!	!	!	!	!	!	!	!LO:LB:g=original	!
=95	=95	=95	=95	=95	=95	=95	=95	=95
(2A\	a-	.	2F/	a-	2f\	A-	(1cc	a-
2G\	.	.	1G	.	1d	.	.	.
2GG/)	.	.	.	.	.	.	2b\)	.
=96	=96	=96	=96	=96	=96	=96	=96	=96
1.C	-men.	.	1.G	-men.	1.e	-men.	1.cc	-men.
==	==	==	==	==	==	==	==	==
*-	*-	*-	*-	*-	*-	*-	*-	*-
!!!system-decoration: [(g1)]
!!!RDF**kern: >= above
!!!RDF**kern: <= below
!!!ENC: Krzysztof Stępień
!!!END: 2021-01-28
!!!ENC:Anna Matuszewska
!!!END:2021-02-04
